X:1
T:Title
%%score [ ( 1 2 ) ( 3 4 ) ] { ( 5 6 ) | ( 7 8 ) }
L:1/8
Q:1/4=120
M:4/4
K:Ab
V:1 treble nm="Midi_74"
V:2 treble 
V:3 bass nm="Midi_74"
V:4 bass 
V:5 treble nm="Org."
V:6 treble 
V:7 bass 
V:8 bass 
V:1
 c8 | (d2 f2) (e2 d2) | c8 || c8 | c4 c4 | f4 =B4 | c8 || =E8 | (F2 A2) (G2 F2) | =E8 || c8 | %11
 B4 B4 |"^William Henry Havergal\n(1793-1870)" A4 G4 | F8 |] %14
V:2
 F8 | F4 G4 | A8 || A8 | (G2 B2) (A2 G2) | F4 F4 | =E8 || C8 | C4 D4 | C8 || F8 | G4 G4 | F4 =E4 | %13
 F8 |] %14
V:3
 A,8 | (B,2 D2) (C2 B,2) | A,8 || C8 | C4 (F,2 G,2) | (A,2 G,2) F,4 | G,8 || G,8 | %8
 (A,2 C2) (B,2 A,2) | G,8 || C8 | (D2 F2) (E2 D2) | (C2 A,2) (B,2 C2) | A,8 |] %14
V:4
 F,8 | D,4 E,4 | A,8 || F,8 | (=E,2 G,2) (F,2 _E,2) | D,4 D,4 | C,8 || C,8 | A,,4 B,,4 | C,8 || %10
 A,,8 | (B,,2 D,2) (C,2 B,,2) | C,4 C,4 | F,8 |] %14
V:5
 c8 | d2 f2 e2 d2 | c8 || c8 | c4 c4 | f4 =B4 | c8 || =E8 | F2 A2 G2 F2 | =E8 || c8 | [GB]4 [GB]4 | %12
 [FA]4 [=EG]4 | F8 |] %14
V:6
 A8 | B2 d2 c2 B2 | A8 || A8 | G2 B2 A2 G2 | [FA]4 F4 | =E8 || x8 | x8 | C8 || [CF]8 | %11
 D2 F2 E2 D2 | C2 A,2 B,2 C2 | [A,F]8 |] %14
V:7
 x8 | x8 | x8 || x8 | x8 | x8 | x8 || G,8 | A,2 C2 B,2 A,2 | G,8 || x8 | x8 | x8 | x8 |] %14
V:8
 F,8 | D,4 E,4 | A,8 || F,8 | =E,2 G,2 F,2 _E,2 | D,4 D,4 | C,8 || C,8 | A,,4 B,,4 | C,8 || A,,8 | %11
 B,,2 D,2 C,2 B,,2 | C,4 C,4 | F,8 |] %14

